packages/ffe-icons/icons/filled/md/lock_open_right.svg

<svg xmlns="http://www.w3.org/2000/svg" height="24" viewBox="0 -960 960 960" width="24"><path d="M480-290.001q29.154 0 49.576-20.423 20.423-20.422 20.423-49.576t-20.423-49.576Q509.154-429.999 480-429.999t-49.576 20.423Q410.001-389.154 410.001-360t20.423 49.576q20.422 20.423 49.576 20.423Zm-227.691 190q-29.827 0-51.067-21.241-21.241-21.24-21.241-51.067v-375.382q0-29.827 21.241-51.067 21.24-21.241 51.067-21.241h287.692v-80q0-74.922 52.538-127.46Q645.078-879.997 720-879.997q68.846 0 118.961 44.846 50.115 44.846 58.807 110.076 1.615 10.308-6.665 17.692t-21.076 7.384q-12.797 0-21.104-5.846-8.308-5.846-11.769-17.999-8.692-40.693-40.961-68.424-32.27-27.731-76.193-27.731-50 0-85 35t-35 85v80h107.691q29.827 0 51.067 21.241 21.241 21.24 21.241 51.067v375.382q0 29.827-21.241 51.067-21.24 21.241-51.067 21.241H252.309Z"/></svg>

<svg xmlns="http://www.w3.org/2000/svg" height="24" viewBox="0 -960 960 960" width="24"><path d="M480-290q29.15 0 49.58-20.42Q550-330.85 550-360t-20.42-49.58Q509.15-430 480-430t-49.58 20.42Q410-389.15 410-360t20.42 49.58Q450.85-290 480-290ZM252.31-100q-29.83 0-51.07-21.24Q180-142.48 180-172.31v-375.38q0-29.83 21.24-51.07Q222.48-620 252.31-620H540v-80q0-74.92 52.54-127.46Q645.08-880 720-880q68.85 0 118.96 44.85 50.12 44.84 58.81 110.08 1.61 10.3-6.67 17.69-8.28 7.38-21.07 7.38-12.8 0-21.11-5.84-8.3-5.85-11.77-18-8.69-40.7-40.96-68.43Q763.92-820 720-820q-50 0-85 35t-35 85v80h107.69q29.83 0 51.07 21.24Q780-577.52 780-547.69v375.38q0 29.83-21.24 51.07Q737.52-100 707.69-100H252.31Z"/></svg>
